packages/icons/svg/24/Palette.svg

<svg width="24" height="24" fill="none" xmlns="http://www.w3.org/2000/svg" viewBox="0 0 24 24"><path fill-rule="evenodd" clip-rule="evenodd" d="M12 3a9 9 0 000 18c.83 0 1.5-.67 1.5-1.5 0-.39-.15-.74-.39-1.01-.23-.26-.38-.61-.38-.99 0-.83.67-1.5 1.5-1.5H16c2.76 0 5-2.24 5-5 0-4.42-4.03-8-9-8zm-5.5 9c-.83 0-1.5-.67-1.5-1.5S5.67 9 6.5 9 8 9.67 8 10.5 7.33 12 6.5 12zM8 6.5C8 7.33 8.67 8 9.5 8S11 7.33 11 6.5 10.33 5 9.5 5 8 5.67 8 6.5zM14.5 8c-.83 0-1.5-.67-1.5-1.5S13.67 5 14.5 5s1.5.67 1.5 1.5S15.33 8 14.5 8zm1.5 2.5c0 .83.67 1.5 1.5 1.5s1.5-.67 1.5-1.5S18.33 9 17.5 9s-1.5.67-1.5 1.5z" fill="currentColor"></path></svg>

<svg width="24" height="24" viewBox="0 0 24 24" fill="none" xmlns="http://www.w3.org/2000/svg">
<path fill-rule="evenodd" clip-rule="evenodd" d="M12 3C7.03 3 3 7.03 3 12C3 16.97 7.03 21 12 21C12.83 21 13.5 20.33 13.5 19.5C13.5 19.11 13.35 18.76 13.11 18.49C12.88 18.23 12.73 17.88 12.73 17.5C12.73 16.67 13.4 16 14.23 16H16C18.76 16 21 13.76 21 11C21 6.58 16.97 3 12 3ZM6.5 12C5.67 12 5 11.33 5 10.5C5 9.67 5.67 9 6.5 9C7.33 9 8 9.67 8 10.5C8 11.33 7.33 12 6.5 12ZM8 6.5C8 7.33 8.67 8 9.5 8C10.33 8 11 7.33 11 6.5C11 5.67 10.33 5 9.5 5C8.67 5 8 5.67 8 6.5ZM14.5 8C13.67 8 13 7.33 13 6.5C13 5.67 13.67 5 14.5 5C15.33 5 16 5.67 16 6.5C16 7.33 15.33 8 14.5 8ZM16 10.5C16 11.33 16.67 12 17.5 12C18.33 12 19 11.33 19 10.5C19 9.67 18.33 9 17.5 9C16.67 9 16 9.67 16 10.5Z" fill="#858585"/>
</svg>
